icons/badge/add/octagon.svg

<svg width="32" height="32" viewBox="0 0 32 32" fill="none" xmlns="http://www.w3.org/2000/svg">
<path fill-rule="evenodd" clip-rule="evenodd" d="M9.66679 2.58579C10.0419 2.21071 10.5506 2 11.081 2H20.9192C21.4497 2 21.9584 2.21071 22.3335 2.58579L29.4143 9.66667C29.7894 10.0417 30.0001 10.5504 30.0001 11.0809V20.9191C30.0001 21.4496 29.7894 21.9583 29.4143 22.3333L22.3335 29.4142C21.9584 29.7893 21.4497 30 20.9192 30H11.081C10.5506 30 10.0419 29.7893 9.66679 29.4142L2.58591 22.3333C2.21083 21.9583 2.00012 21.4496 2.00012 20.9191V11.0809C2.00012 10.5504 2.21084 10.0417 2.58591 9.66667L9.66679 2.58579ZM20.9192 4L11.081 4L4.00012 11.0809V20.9191L11.081 28L20.9192 28L28.0001 20.9191L28.0001 11.0809L20.9192 4ZM15 15V9H17V15H23V17H17V23H15V17H9V15H15Z" fill="black"/>
</svg>

<svg width="32" height="32" viewBox="0 0 32 32" xmlns="http://www.w3.org/2000/svg">
    <path fill-rule="evenodd" d="M9.667 2.586A2 2 0 0111.08 2h9.838a2 2 0 011.415.586l7.08 7.08A2 2 0 0130 11.082v9.838a2 2 0 01-.586 1.414l-7.08 7.081a2 2 0 01-1.415.586h-9.838a2 2 0 01-1.414-.586l-7.081-7.08A2 2 0 012 20.918v-9.838a2 2 0 01.586-1.414l7.08-7.081zM20.919 4h-9.838l-7.08 7.08v9.84L11.08 28h9.838L28 20.92v-9.84L20.92 4zM15 15V9h2v6h6v2h-6v6h-2v-6H9v-2h6z"/>
</svg>
